Adwaita++/status/16/display-brightness-high.svg

<svg height="16" width="16" xmlns="http://www.w3.org/2000/svg">
  <path d="m8 .72-2.19 2.28h-2.81v2.81l-2.28 2.19 2.28 2.22v2.78h2.81l2.19 2.28 2.22-2.28h2.78v-2.78l2.28-2.22-2.28-2v-3h-2.78zm0 3.28c2.21 0 4 1.79 4 4s-1.79 4-4 4-4-1.79-4-4 1.79-4 4-4zm0 1c-1.6569 0-3 1.3431-3 3s1.3431 3 3 3 3-1.3431 3-3-1.3431-3-3-3z" fill="#474747"/>
</svg>

<svg xmlns="http://www.w3.org/2000/svg" width="16" height="16" version="1.1">
 <path style="fill:#474747" d="M 8,0.72 5.81,3 H 3 V 5.81 L 0.72,8 3,10.22 V 13 H 5.81 L 8,15.28 10.22,13 H 13 V 10.22 L 15.28,8 13,6 V 3 H 10.22 Z M 8,4 C 10.21,4 12,5.79 12,8 12,10.21 10.21,12 8,12 5.79,12 4,10.21 4,8 4,5.79 5.79,4 8,4 Z M 8,5 C 6.3431,5 5,6.3431 5,8 5,9.6569 6.3431,11 8,11 9.6569,11 11,9.6569 11,8 11,6.3431 9.6569,5 8,5 Z"/>
</svg>
